icon-themes/breeze_svg/cmd/32/shear.svg

<svg viewBox="0 0 32 32" xmlns="http://www.w3.org/2000/svg"><path d="m12 4v21l8 3v-21zm-5 1-3 5h2v9h-2l3 5 3-5h-2v-9h2zm6 .4414062 6 2.25v18.8652348l-6-2.25zm12 2.5585938-3 5h2v9h-2l3 5 3-5h-2v-9h2z" fill="#4d4d4d"/></svg>

<svg xmlns="http://www.w3.org/2000/svg" viewBox="0 0 32 32">
 <path 
     style="fill:#4d4d4d" 
     d="M 12 4 L 12 25 L 20 28 L 20 7 L 12 4 z M 7 5 L 4 10 L 6 10 L 6 19 L 4 19 L 7 24 L 10 19 L 8 19 L 8 10 L 10 10 L 7 5 z M 13 5.4414062 L 19 7.6914062 L 19 26.556641 L 13 24.306641 L 13 5.4414062 z M 25 8 L 22 13 L 24 13 L 24 22 L 22 22 L 25 27 L 28 22 L 26 22 L 26 13 L 28 13 L 25 8 z "
     />
</svg>
